Newaita-dark/apps/48/irc-chat.svg

<svg height="48" viewBox="0 0 48 48" width="48" xmlns="http://www.w3.org/2000/svg" xmlns:xlink="http://www.w3.org/1999/xlink"><linearGradient id="a"><stop offset="0" stop-opacity=".313726"/><stop offset=".222222" stop-opacity=".27451"/><stop offset="1" stop-opacity="0"/></linearGradient><radialGradient id="b" cx="450.908936" cy="189.579361" gradientTransform="matrix(.0000001 -.117199 -.105479 -.00000001 54.726412 95.392975)" gradientUnits="userSpaceOnUse" r="21.166656" xlink:href="#a"/><radialGradient id="c" cx="450.908936" cy="189.579361" gradientTransform="matrix(-.00000022 .117199 .128918 .00000012 11.282014 -11.291214)" gradientUnits="userSpaceOnUse" r="21.166656" xlink:href="#a"/><radialGradient id="d" cx="450.908936" cy="189.579361" gradientTransform="matrix(-.00000011 -.117199 .117198 -.00000001 13.50381 95.392975)" gradientUnits="userSpaceOnUse" r="21.166656" xlink:href="#a"/><radialGradient id="e" cx="450.908936" cy="189.579361" gradientTransform="matrix(.00000018 .117199 -.117199 .00000008 56.948249 -11.291206)" gradientUnits="userSpaceOnUse" r="21.166656" xlink:href="#a"/><linearGradient id="f" gradientUnits="userSpaceOnUse" x1="34.7298952499" x2="34.7298952499" y1="42.0509015" y2="15.25926725"><stop offset="0" stop-color="#29b6f6"/><stop offset="1" stop-color="#4fc3f7"/></linearGradient><linearGradient id="g" gradientUnits="userSpaceOnUse" x1="13.89195900005" x2="13.89195900005" y1="31.1357922501" y2="4.3441580001"><stop offset="0" stop-color="#ffca28"/><stop offset="1" stop-color="#ffd54f"/></linearGradient><linearGradient id="h" gradientUnits="userSpaceOnUse" x1="20.837964" x2="20.837964" y1="26.17442180616" y2="4.34417306195"><stop offset="0" stop-color="#424242"/><stop offset="1" stop-color="#616161"/></linearGradient><path d="m35.226562 42.050781h3.96875v-1.984375h-3.96875zm0 0" fill="url(#b)"/><path d="m35.226562 42.050781h-3.96875v1.984375h3.96875zm0 0" fill="url(#c)"/><path d="m35.226562 42.050781h-3.96875v-1.984375h3.96875zm0 0" fill="url(#d)"/><path d="m35.226562 42.050781h3.96875v1.984375h-3.96875zm0 0" fill="url(#e)"/><path d="m41.652344 15.257812c2.199218 0 3.96875 1.773438 3.96875 3.96875v13.894532c0 2.199218-1.769532 3.96875-3.96875 3.96875h-5.976563l.023438 4.09375c0 1.117187-.992188 1.117187-1.34375 0l-1.609375-4.09375h-12.925782c-2.199218 0-3.96875-1.769532-3.96875-3.96875v-13.894532c0-2.195312 1.769532-3.96875 3.96875-3.96875zm0 0" fill="url(#f)"/><path d="m33.714844 22.207031c0 2.195313-1.769532 3.96875-3.96875 3.96875h-12.925782l-.96875 2.460938v.992187l.96875-2.460937h12.925782c2.199218 0 3.96875-1.773438 3.96875-3.96875zm0 0" fill-opacity=".235294"/><path d="m41.675781 15.257812c2.199219 0 3.96875 1.773438 3.96875 3.96875v.496094c0-2.195312-1.769531-3.96875-3.96875-3.96875h-21.832031c-2.195312 0-3.96875 1.773438-3.96875 3.96875v-.496094c0-2.195312 1.773438-3.96875 3.96875-3.96875zm-5.972656 22.328126.019531 3.597656c0 .03125 0 .058594-.003906.089844l-.019531-3.6875zm0 0" fill="#fff" fill-opacity=".392157"/><path d="m45.644531 32.625v.496094c0 2.199218-1.769531 3.96875-3.96875 3.96875h-5.972656l-.003906-.496094h5.976562c2.199219 0 3.96875-1.769531 3.96875-3.96875zm-29.769531 0c0 2.199219 1.773438 3.96875 3.96875 3.96875h12.925781l1.613281 4.09375c.335938 1.085938 1.285157 1.113281 1.335938.089844l.003906.40625c0 1.117187-.992187 1.117187-1.339844 0l-1.613281-4.09375h-12.925781c-2.195312 0-3.96875-1.769532-3.96875-3.96875zm0 0" fill-opacity=".235294"/><path d="m84.418383-168.682449c-23.456093 0-42.329291 18.914861-42.329291 42.329291v148.194182c0 23.456093 18.873198 42.329291 42.329291 42.329291h63.743913l-.249976 43.662497c0 11.915529 10.582323 11.915529 14.290302 0l17.20669-43.662497h137.861835c23.414431 0 42.329291-18.873198 42.329291-42.329291v-148.194182c0-23.41443-18.91486-42.329291-42.329291-42.329291zm0 0" fill="none" stroke="#212121" stroke-linecap="round" stroke-width="3" transform="matrix(-.093759 0 0 .093759 49.59076 31.073302)"/><path d="m7.914062 4.34375c-2.199218 0-3.96875 1.769531-3.96875 3.96875v13.894531c0 2.195313 1.769532 3.96875 3.96875 3.96875h5.976563l-.023437 4.089844c0 1.117187.992187 1.117187 1.34375 0l1.609374-4.089844h12.925782c2.199218 0 3.96875-1.773437 3.96875-3.96875v-13.894531c0-2.199219-1.769532-3.96875-3.96875-3.96875zm0 0" fill="url(#g)"/><path d="m7.914062 4.34375c-2.199218 0-3.96875 1.769531-3.96875 3.96875v.496094c0-2.199219 1.769532-3.96875 3.96875-3.96875h21.832032c2.199218 0 3.96875 1.769531 3.96875 3.96875v-.496094c0-2.199219-1.769532-3.96875-3.96875-3.96875zm5.976563 22.328125-.023437 3.59375c0 .03125.003906.0625.003906.089844zm0 0" fill="#fff" fill-opacity=".392157"/><path d="m3.945312 21.710938v.496093c0 2.195313 1.769532 3.96875 3.96875 3.96875h5.976563v-.496093h-5.976563c-2.199218 0-3.96875-1.773438-3.96875-3.96875zm29.769532 0c0 2.195312-1.769532 3.96875-3.96875 3.96875h-12.925782l-1.609374 4.089843c-.339844 1.085938-1.289063 1.117188-1.339844.089844l-.003906.40625c0 1.117187.992187 1.117187 1.34375 0l1.609374-4.089844h12.925782c2.199218 0 3.96875-1.773437 3.96875-3.96875zm0 0" fill-opacity=".235294"/><path d="m84.408606-168.671091c-23.456093 0-42.329291 18.873198-42.329291 42.329291v148.194182c0 23.41443 18.873198 42.329291 42.329291 42.329291h63.743913l-.249976 43.620834c0 11.915529 10.582322 11.915529 14.331964 0l17.165028-43.620834h137.861835c23.456093 0 42.329291-18.914861 42.329291-42.329291v-148.194182c0-23.456093-18.873198-42.329291-42.329291-42.329291zm0 0" fill="none" stroke="#212121" stroke-linecap="round" stroke-width="3" transform="matrix(.093759 0 0 .093759 0 20.158175)"/><path d="m16.371094 9.304688c-.273438 0-.496094.222656-.496094.496093v2.480469h-2.480469c-.273437 0-.496093.222656-.496093.496094 0 .277344.222656.496094.496093.496094h2.480469v3.96875h-2.480469c-.273437 0-.496093.222656-.496093.496093 0 .277344.222656.496094.496093.496094h2.480469v2.484375c0 .273438.222656.496094.496094.496094.277344 0 .496094-.222656.496094-.496094v-2.484375h3.972656v2.484375c0 .273438.21875.496094.496094.496094.273437 0 .496093-.222656.496093-.496094v-2.484375h2.480469c.273438 0 .496094-.21875.496094-.496094 0-.273437-.222656-.496093-.496094-.496093h-2.480469v-3.96875h2.480469c.273438 0 .496094-.21875.496094-.496094 0-.273438-.222656-.496094-.496094-.496094h-2.480469v-2.480469c0-.273437-.222656-.496093-.496093-.496093-.277344 0-.496094.222656-.496094.496093v2.480469h-3.972656v-2.480469c0-.273437-.21875-.496093-.496094-.496093zm.496094 3.96875h3.972656v3.96875h-3.972656zm0 0" fill="url(#h)"/></svg>

<?xml version="1.0" encoding="UTF-8"?>
<svg xmlns="http://www.w3.org/2000/svg" xmlns:xlink="http://www.w3.org/1999/xlink" width="48px" height="48px" viewBox="0 0 48 48" version="1.1">
<defs>
<radialGradient id="radial0" gradientUnits="userSpaceOnUse" cx="450.908936" cy="189.579361" fx="450.908936" fy="189.579361" r="21.166656" gradientTransform="matrix(0.0000000977213,-0.117199,-0.105479,-0.0000000084613,54.726412,95.392975)">
<stop offset="0" style="stop-color:rgb(0%,0%,0%);stop-opacity:0.313726;"/>
<stop offset="0.222222" style="stop-color:rgb(0%,0%,0%);stop-opacity:0.27451;"/>
<stop offset="1" style="stop-color:rgb(0%,0%,0%);stop-opacity:0;"/>
</radialGradient>
<radialGradient id="radial1" gradientUnits="userSpaceOnUse" cx="450.908936" cy="189.579361" fx="450.908936" fy="189.579361" r="21.166656" gradientTransform="matrix(-0.000000218287,0.117199,0.128918,0.000000121375,11.282014,-11.291214)">
<stop offset="0" style="stop-color:rgb(0%,0%,0%);stop-opacity:0.313726;"/>
<stop offset="0.222222" style="stop-color:rgb(0%,0%,0%);stop-opacity:0.27451;"/>
<stop offset="1" style="stop-color:rgb(0%,0%,0%);stop-opacity:0;"/>
</radialGradient>
<radialGradient id="radial2" gradientUnits="userSpaceOnUse" cx="450.908936" cy="189.579361" fx="450.908936" fy="189.579361" r="21.166656" gradientTransform="matrix(-0.000000106594,-0.117199,0.117198,-0.0000000084613,13.50381,95.392975)">
<stop offset="0" style="stop-color:rgb(0%,0%,0%);stop-opacity:0.313726;"/>
<stop offset="0.222222" style="stop-color:rgb(0%,0%,0%);stop-opacity:0.27451;"/>
<stop offset="1" style="stop-color:rgb(0%,0%,0%);stop-opacity:0;"/>
</radialGradient>
<radialGradient id="radial3" gradientUnits="userSpaceOnUse" cx="450.908936" cy="189.579361" fx="450.908936" fy="189.579361" r="21.166656" gradientTransform="matrix(0.000000175212,0.117199,-0.117199,0.000000077079,56.948249,-11.291206)">
<stop offset="0" style="stop-color:rgb(0%,0%,0%);stop-opacity:0.313726;"/>
<stop offset="0.222222" style="stop-color:rgb(0%,0%,0%);stop-opacity:0.27451;"/>
<stop offset="1" style="stop-color:rgb(0%,0%,0%);stop-opacity:0;"/>
</radialGradient>
<linearGradient id="linear0" gradientUnits="userSpaceOnUse" x1="370.416656" y1="233.5" x2="370.416656" y2="-52.25" gradientTransform="matrix(0.093759,0,0,0.093759,0,20.158175)">
<stop offset="0" style="stop-color:rgb(16.078432%,71.372551%,96.470588%);stop-opacity:1;"/>
<stop offset="1" style="stop-color:rgb(30.980393%,76.47059%,96.862745%);stop-opacity:1;"/>
</linearGradient>
<linearGradient id="linear1" gradientUnits="userSpaceOnUse" x1="148.166672" y1="117.083344" x2="148.166672" y2="-168.666656" gradientTransform="matrix(0.093759,0,0,0.093759,0,20.158175)">
<stop offset="0" style="stop-color:rgb(100%,79.215688%,15.686275%);stop-opacity:1;"/>
<stop offset="1" style="stop-color:rgb(100%,83.529413%,30.980393%);stop-opacity:1;"/>
</linearGradient>
<linearGradient id="linear2" gradientUnits="userSpaceOnUse" x1="840" y1="1055.118164" x2="840" y2="175.118134" gradientTransform="matrix(0.0248071,0,0,0.0248071,0,0.00000000000000282)">
<stop offset="0" style="stop-color:rgb(25.882354%,25.882354%,25.882354%);stop-opacity:1;"/>
<stop offset="1" style="stop-color:rgb(38.039216%,38.039216%,38.039216%);stop-opacity:1;"/>
</linearGradient>
</defs>
<g id="surface1">
<path style=" stroke:none;fill-rule:nonzero;fill:url(#radial0);" d="M 35.226562 42.050781 L 39.195312 42.050781 L 39.195312 40.066406 L 35.226562 40.066406 Z M 35.226562 42.050781 "/>
<path style=" stroke:none;fill-rule:nonzero;fill:url(#radial1);" d="M 35.226562 42.050781 L 31.257812 42.050781 L 31.257812 44.035156 L 35.226562 44.035156 Z M 35.226562 42.050781 "/>
<path style=" stroke:none;fill-rule:nonzero;fill:url(#radial2);" d="M 35.226562 42.050781 L 31.257812 42.050781 L 31.257812 40.066406 L 35.226562 40.066406 Z M 35.226562 42.050781 "/>
<path style=" stroke:none;fill-rule:nonzero;fill:url(#radial3);" d="M 35.226562 42.050781 L 39.195312 42.050781 L 39.195312 44.035156 L 35.226562 44.035156 Z M 35.226562 42.050781 "/>
<path style=" stroke:none;fill-rule:nonzero;fill:url(#linear0);" d="M 41.652344 15.257812 C 43.851562 15.257812 45.621094 17.03125 45.621094 19.226562 L 45.621094 33.121094 C 45.621094 35.320312 43.851562 37.089844 41.652344 37.089844 L 35.675781 37.089844 L 35.699219 41.183594 C 35.699219 42.300781 34.707031 42.300781 34.355469 41.183594 L 32.746094 37.089844 L 19.820312 37.089844 C 17.621094 37.089844 15.851562 35.320312 15.851562 33.121094 L 15.851562 19.226562 C 15.851562 17.03125 17.621094 15.257812 19.820312 15.257812 Z M 41.652344 15.257812 "/>
<path style=" stroke:none;fill-rule:nonzero;fill:rgb(0%,0%,0%);fill-opacity:0.235294;" d="M 33.714844 22.207031 C 33.714844 24.402344 31.945312 26.175781 29.746094 26.175781 L 16.820312 26.175781 L 15.851562 28.636719 L 15.851562 29.628906 L 16.820312 27.167969 L 29.746094 27.167969 C 31.945312 27.167969 33.714844 25.394531 33.714844 23.199219 Z M 33.714844 22.207031 "/>
<path style=" stroke:none;fill-rule:nonzero;fill:rgb(100%,100%,100%);fill-opacity:0.392157;" d="M 41.675781 15.257812 C 43.875 15.257812 45.644531 17.03125 45.644531 19.226562 L 45.644531 19.722656 C 45.644531 17.527344 43.875 15.753906 41.675781 15.753906 L 19.84375 15.753906 C 17.648438 15.753906 15.875 17.527344 15.875 19.722656 L 15.875 19.226562 C 15.875 17.03125 17.648438 15.257812 19.84375 15.257812 Z M 35.703125 37.585938 L 35.722656 41.183594 C 35.722656 41.214844 35.722656 41.242188 35.71875 41.273438 L 35.699219 37.585938 Z M 35.703125 37.585938 "/>
<path style=" stroke:none;fill-rule:nonzero;fill:rgb(0%,0%,0%);fill-opacity:0.235294;" d="M 45.644531 32.625 L 45.644531 33.121094 C 45.644531 35.320312 43.875 37.089844 41.675781 37.089844 L 35.703125 37.089844 L 35.699219 36.59375 L 41.675781 36.59375 C 43.875 36.59375 45.644531 34.824219 45.644531 32.625 Z M 15.875 32.625 C 15.875 34.824219 17.648438 36.59375 19.84375 36.59375 L 32.769531 36.59375 L 34.382812 40.6875 C 34.71875 41.773438 35.667969 41.800781 35.71875 40.777344 L 35.722656 41.183594 C 35.722656 42.300781 34.730469 42.300781 34.382812 41.183594 L 32.769531 37.089844 L 19.84375 37.089844 C 17.648438 37.089844 15.875 35.320312 15.875 33.121094 Z M 15.875 32.625 "/>
<path style="fill:none;stroke-width:3;stroke-linecap:round;stroke-linejoin:miter;stroke:rgb(12.941177%,12.941177%,12.941177%);stroke-opacity:1;stroke-miterlimit:4;" d="M 84.418383 -168.682449 C 60.96229 -168.682449 42.089092 -149.767588 42.089092 -126.353158 L 42.089092 21.841024 C 42.089092 45.297117 60.96229 64.170315 84.418383 64.170315 L 148.162296 64.170315 L 147.91232 107.832812 C 147.91232 119.748341 158.494643 119.748341 162.202622 107.832812 L 179.409312 64.170315 L 317.271147 64.170315 C 340.685578 64.170315 359.600438 45.297117 359.600438 21.841024 L 359.600438 -126.353158 C 359.600438 -149.767588 340.685578 -168.682449 317.271147 -168.682449 Z M 84.418383 -168.682449 " transform="matrix(-0.093759,0,0,0.093759,49.59076,31.073302)"/>
<path style=" stroke:none;fill-rule:nonzero;fill:url(#linear1);" d="M 7.914062 4.34375 C 5.714844 4.34375 3.945312 6.113281 3.945312 8.3125 L 3.945312 22.207031 C 3.945312 24.402344 5.714844 26.175781 7.914062 26.175781 L 13.890625 26.175781 L 13.867188 30.265625 C 13.867188 31.382812 14.859375 31.382812 15.210938 30.265625 L 16.820312 26.175781 L 29.746094 26.175781 C 31.945312 26.175781 33.714844 24.402344 33.714844 22.207031 L 33.714844 8.3125 C 33.714844 6.113281 31.945312 4.34375 29.746094 4.34375 Z M 7.914062 4.34375 "/>
<path style=" stroke:none;fill-rule:nonzero;fill:rgb(100%,100%,100%);fill-opacity:0.392157;" d="M 7.914062 4.34375 C 5.714844 4.34375 3.945312 6.113281 3.945312 8.3125 L 3.945312 8.808594 C 3.945312 6.609375 5.714844 4.839844 7.914062 4.839844 L 29.746094 4.839844 C 31.945312 4.839844 33.714844 6.609375 33.714844 8.808594 L 33.714844 8.3125 C 33.714844 6.113281 31.945312 4.34375 29.746094 4.34375 Z M 13.890625 26.671875 L 13.867188 30.265625 C 13.867188 30.296875 13.871094 30.328125 13.871094 30.355469 Z M 13.890625 26.671875 "/>
<path style=" stroke:none;fill-rule:nonzero;fill:rgb(0%,0%,0%);fill-opacity:0.235294;" d="M 3.945312 21.710938 L 3.945312 22.207031 C 3.945312 24.402344 5.714844 26.175781 7.914062 26.175781 L 13.890625 26.175781 L 13.890625 25.679688 L 7.914062 25.679688 C 5.714844 25.679688 3.945312 23.90625 3.945312 21.710938 Z M 33.714844 21.710938 C 33.714844 23.90625 31.945312 25.679688 29.746094 25.679688 L 16.820312 25.679688 L 15.210938 29.769531 C 14.871094 30.855469 13.921875 30.886719 13.871094 29.859375 L 13.867188 30.265625 C 13.867188 31.382812 14.859375 31.382812 15.210938 30.265625 L 16.820312 26.175781 L 29.746094 26.175781 C 31.945312 26.175781 33.714844 24.402344 33.714844 22.207031 Z M 33.714844 21.710938 "/>
<path style="fill:none;stroke-width:3;stroke-linecap:round;stroke-linejoin:miter;stroke:rgb(12.941177%,12.941177%,12.941177%);stroke-opacity:1;stroke-miterlimit:4;" d="M 84.408606 -168.671091 C 60.952513 -168.671091 42.079315 -149.797893 42.079315 -126.3418 L 42.079315 21.852382 C 42.079315 45.266812 60.952513 64.181673 84.408606 64.181673 L 148.152519 64.181673 L 147.902543 107.802507 C 147.902543 119.718036 158.484865 119.718036 162.234507 107.802507 L 179.399535 64.181673 L 317.26137 64.181673 C 340.717463 64.181673 359.590661 45.266812 359.590661 21.852382 L 359.590661 -126.3418 C 359.590661 -149.797893 340.717463 -168.671091 317.26137 -168.671091 Z M 84.408606 -168.671091 " transform="matrix(0.093759,0,0,0.093759,0,20.158175)"/>
<path style=" stroke:none;fill-rule:nonzero;fill:url(#linear2);" d="M 16.371094 9.304688 C 16.097656 9.304688 15.875 9.527344 15.875 9.800781 L 15.875 12.28125 L 13.394531 12.28125 C 13.121094 12.28125 12.898438 12.503906 12.898438 12.777344 C 12.898438 13.054688 13.121094 13.273438 13.394531 13.273438 L 15.875 13.273438 L 15.875 17.242188 L 13.394531 17.242188 C 13.121094 17.242188 12.898438 17.464844 12.898438 17.738281 C 12.898438 18.015625 13.121094 18.234375 13.394531 18.234375 L 15.875 18.234375 L 15.875 20.71875 C 15.875 20.992188 16.097656 21.214844 16.371094 21.214844 C 16.648438 21.214844 16.867188 20.992188 16.867188 20.71875 L 16.867188 18.234375 L 20.839844 18.234375 L 20.839844 20.71875 C 20.839844 20.992188 21.058594 21.214844 21.335938 21.214844 C 21.609375 21.214844 21.832031 20.992188 21.832031 20.71875 L 21.832031 18.234375 L 24.3125 18.234375 C 24.585938 18.234375 24.808594 18.015625 24.808594 17.738281 C 24.808594 17.464844 24.585938 17.242188 24.3125 17.242188 L 21.832031 17.242188 L 21.832031 13.273438 L 24.3125 13.273438 C 24.585938 13.273438 24.808594 13.054688 24.808594 12.777344 C 24.808594 12.503906 24.585938 12.28125 24.3125 12.28125 L 21.832031 12.28125 L 21.832031 9.800781 C 21.832031 9.527344 21.609375 9.304688 21.335938 9.304688 C 21.058594 9.304688 20.839844 9.527344 20.839844 9.800781 L 20.839844 12.28125 L 16.867188 12.28125 L 16.867188 9.800781 C 16.867188 9.527344 16.648438 9.304688 16.371094 9.304688 Z M 16.867188 13.273438 L 20.839844 13.273438 L 20.839844 17.242188 L 16.867188 17.242188 Z M 16.867188 13.273438 "/>
</g>
</svg>
